packages/icons/src/SVG/thumbs-down-solid.svg

<svg width="12" height="12" viewBox="0 0 12 12" >
<path d="M10 0V7H12V0H10Z" />
<path fill-rule="evenodd" clip-rule="evenodd" d="M8 12H6.5C5.67157 12 5 11.3284 5 10.5V8H1.5C0.671573 8 0 7.32843 0 6.5V4L2 0H9V7L8 9V12Z" />
</svg>

<!-- Generated by IcoMoon.io -->
<svg version="1.1" xmlns="http://www.w3.org/2000/svg" width="12" height="12" viewBox="0 0 12 12">
<title>thumbs-down-solid</title>
<path d="M10 0v7h2v-7h-2z"></path>
<path d="M8 12h-1.5c-0.828 0-1.5-0.672-1.5-1.5v-2.5h-3.5c-0.828 0-1.5-0.672-1.5-1.5v-2.5l2-4h7v7l-1 2v3z"></path>
</svg>
